www/img/codepen.svg

<?xml version="1.0" encoding="UTF-8" standalone="no"?>
<svg width="26px" height="26px" viewBox="0 0 26 26" version="1.1" xmlns="http://www.w3.org/2000/svg" xmlns:xlink="http://www.w3.org/1999/xlink">
    <!-- Generator: Sketch 3.8.3 (29802) - http://www.bohemiancoding.com/sketch -->
    <title>Button-Black</title>
    <desc>Created with Sketch.</desc>
    <defs></defs>
    <g id="Page-1" stroke="none" stroke-width="1" fill="none" fill-rule="evenodd">
        <g id="Desktop-HD" transform="translate(-323.000000, -482.000000)" fill="#1A1918">
            <g id="Group" transform="translate(249.000000, 482.000000)">
                <g id="Button-Black" transform="translate(74.000000, 0.000000)">
                    <path d="M12.6321552,23.8767468 C6.81068273,23.8767468 2.07470101,19.1406035 2.07470101,13.3192926 C2.07470101,7.49803563 6.81068273,2.76183849 12.6321552,2.76183849 C18.4534122,2.76183849 23.1893939,7.49803563 23.1893939,13.3192926 C23.1893939,19.1406035 18.4534122,23.8767468 12.6321552,23.8767468 M12.6321552,0.687153629 C5.65544701,0.687153629 1.61571428e-05,6.34263834 1.61571428e-05,13.3192926 C1.61571428e-05,20.2960008 5.65544701,25.9512701 12.6321552,25.9512701 C19.6086479,25.9512701 25.2640787,20.2960008 25.2640787,13.3192926 C25.2640787,6.34263834 19.6086479,0.687153629 12.6321552,0.687153629" id="Fill-1"></path>
                    <path d="M19.1001395,14.4426449 L17.4208738,13.3192926 L19.1001395,12.1959942 L19.1001395,14.4426449 Z M13.3033336,19.2042626 L13.3033336,16.0733853 L16.2135044,14.1270959 L18.5626991,15.6982165 L13.3033336,19.2042626 Z M12.6321659,14.9073243 L10.2579276,13.3192926 L12.6321659,11.7312609 L15.0061888,13.3192926 L12.6321659,14.9073243 Z M11.9607828,19.2042626 L6.7013635,15.6982165 L9.05077364,14.1270959 L11.9607828,16.0733853 L11.9607828,19.2042626 Z M6.16397693,12.1959942 L7.84340421,13.3192926 L6.16397693,14.4426449 L6.16397693,12.1959942 Z M11.9607828,7.43432263 L11.9607828,10.5651999 L9.05077364,12.5119202 L6.7013635,10.9403149 L11.9607828,7.43432263 Z M13.3033336,7.43432263 L18.5626991,10.9403149 L16.2135044,12.5119202 L13.3033336,10.5651999 L13.3033336,7.43432263 Z M20.4367122,10.8519892 C20.4353119,10.8421333 20.4328345,10.8327083 20.4312188,10.8228525 C20.4278796,10.8038948 20.4244328,10.7849909 20.4194779,10.7665179 C20.4165696,10.7554233 20.4124765,10.7447596 20.4090296,10.7340959 C20.4036439,10.7176156 20.3983121,10.7011892 20.3917415,10.6851936 C20.3871636,10.6740991 20.3818856,10.6630045 20.3767692,10.6523408 C20.3697139,10.6370992 20.3623894,10.6222885 20.3539338,10.6079625 C20.3477941,10.5972449 20.3412235,10.5869582 20.3348684,10.5767253 C20.3258204,10.5627225 20.3165569,10.5491505 20.3064318,10.5360093 C20.2991072,10.5261535 20.2912979,10.5162976 20.2834886,10.5068188 C20.2727711,10.4945393 20.2616765,10.4822061 20.2499895,10.4706806 C20.2412108,10.4616865 20.2324859,10.4526385 20.2232764,10.4443983 C20.2109431,10.4333038 20.1982328,10.4225862 20.1852532,10.4123533 C20.1752358,10.4045441 20.1653261,10.3967348 20.1548778,10.3893563 C20.1509462,10.3868789 20.1474994,10.3835936 20.1437832,10.3811162 L13.0043726,5.62154506 C12.7788728,5.47117591 12.4852436,5.47117591 12.2596899,5.62154506 L5.12033321,10.3811162 C5.11661707,10.3835936 5.11311636,10.3868789 5.10923864,10.3893563 C5.0987365,10.3967348 5.08888064,10.4045441 5.07902479,10.4123533 C5.06588364,10.4225862 5.0531195,10.4333038 5.0410555,10.4443983 C5.03157664,10.4526385 5.0229595,10.4616865 5.01412693,10.4706806 C5.00243993,10.4822061 4.99134536,10.4945393 4.98084321,10.5068188 C4.9728185,10.5162976 4.96500921,10.5261535 4.95763079,10.5360093 C4.94777493,10.5491505 4.93829607,10.5627225 4.9294635,10.5767253 C4.9226775,10.5869582 4.91632236,10.5972449 4.91018264,10.6079625 C4.9019425,10.6222885 4.89456407,10.6370992 4.88734721,10.6523408 C4.88223079,10.6630045 4.87689893,10.6740991 4.87237493,10.6851936 C4.86580436,10.7011892 4.8604725,10.7176156 4.85508679,10.7340959 C4.85158607,10.7447596 4.84770836,10.7554233 4.8446385,10.7665179 C4.83968364,10.7849909 4.83639836,10.8038948 4.83289764,10.8228525 C4.83128193,10.8327083 4.8288045,10.8421333 4.82756579,10.8519892 C4.82363421,10.8807489 4.82142607,10.9099395 4.82142607,10.9395071 L4.82142607,15.6990782 C4.82142607,15.7286458 4.82363421,15.7578363 4.82756579,15.7870269 C4.8288045,15.7965058 4.83128193,15.8063078 4.83289764,15.8157328 C4.83639836,15.8346905 4.83968364,15.8535405 4.8446385,15.8720673 C4.84770836,15.8831619 4.85158607,15.8938256 4.85508679,15.9045432 C4.8604725,15.9209158 4.86580436,15.9373961 4.87237493,15.9538225 C4.87689893,15.9649709 4.88223079,15.9756346 4.88734721,15.9862983 C4.89456407,16.0014322 4.9019425,16.0162429 4.91018264,16.0310536 C4.91632236,16.0413942 4.9226775,16.0515732 4.9294635,16.0618599 C4.93829607,16.0758628 4.94777493,16.0894348 4.95763079,16.1025759 C4.96500921,16.1128626 4.9728185,16.1222876 4.98084321,16.1317126 C4.99134536,16.1440459 5.00243993,16.1563792 5.01412693,16.1679046 C5.0229595,16.1768988 5.03157664,16.1859468 5.0410555,16.1941331 C5.0531195,16.2053353 5.06588364,16.2159991 5.07902479,16.2262319 C5.08888064,16.2340951 5.0987365,16.2418505 5.10923864,16.2492289 C5.11311636,16.2517063 5.11661707,16.2549916 5.12033321,16.2574152 L12.2596899,21.0170402 C12.3724668,21.0922248 12.5023164,21.1300325 12.6321659,21.1300325 C12.7618001,21.1300325 12.8915958,21.0922248 13.0043726,21.0170402 L20.1437832,16.2574152 C20.1474994,16.2549916 20.1509462,16.2517063 20.1548778,16.2492289 C20.1653261,16.2418505 20.1752358,16.2340951 20.1852532,16.2262319 C20.1982328,16.2159991 20.2109431,16.2053353 20.2232764,16.1941331 C20.2324859,16.1859468 20.2412108,16.1768988 20.2499895,16.1679046 C20.2616765,16.1563792 20.2727711,16.1440459 20.2834886,16.1317126 C20.2912979,16.1222876 20.2991072,16.1128626 20.3064318,16.1025759 C20.3165569,16.0894348 20.3258204,16.0758628 20.3348684,16.0618599 C20.3412235,16.0515732 20.3477941,16.0413942 20.3539338,16.0310536 C20.3623894,16.0162429 20.3697139,16.0014322 20.3767692,15.9862983 C20.3818856,15.9756346 20.3871636,15.9649709 20.3917415,15.9538225 C20.3983121,15.9373961 20.4036439,15.9209158 20.4090296,15.9045432 C20.4124765,15.8938256 20.4165696,15.8831619 20.4194779,15.8720673 C20.4244328,15.8535405 20.4278796,15.8346905 20.4312188,15.8157328 C20.4328345,15.8063078 20.4353119,15.7965058 20.4367122,15.7870269 C20.4404284,15.7578363 20.4427442,15.7286458 20.4427442,15.6990782 L20.4427442,10.9395071 C20.4427442,10.9099395 20.4404284,10.8807489 20.4367122,10.8519892 L20.4367122,10.8519892 Z" id="Fill-3"></path>
                </g>
            </g>
        </g>
    </g>
</svg>

<svg width="26" height="26" viewBox="0 0 26 26" xmlns="http://www.w3.org/2000/svg"><title>Codepen</title><g fill="#1A1918" fill-rule="evenodd"><path d="M12.632 23.877c-5.821 0-10.557-4.736-10.557-10.558 0-5.821 4.736-10.557 10.557-10.557 5.821 0 10.557 4.736 10.557 10.557 0 5.822-4.736 10.558-10.557 10.558m0-23.19C5.655.687 0 6.343 0 13.32c0 6.977 5.655 12.632 12.632 12.632 6.977 0 12.632-5.655 12.632-12.632C25.264 6.343 19.61.687 12.632.687"/><path d="M19.1 14.443l-1.68-1.124 1.68-1.123v2.247zm-5.797 4.761v-3.13l2.91-1.947 2.35 1.571-5.26 3.506zm-.67-4.297l-2.375-1.588 2.374-1.588 2.374 1.588-2.374 1.588zm-.672 4.297L6.7 15.698l2.35-1.57 2.91 1.945v3.131zm-5.797-7.008l1.68 1.123-1.68 1.124v-2.247zm5.797-4.762v3.131l-2.91 1.947L6.7 10.94l5.26-3.506zm1.342 0l5.26 3.506-2.35 1.572-2.91-1.947v-3.13zm7.134 3.418l-.006-.03a.657.657 0 0 0-.012-.055c-.002-.012-.007-.022-.01-.033-.005-.016-.01-.033-.017-.049a.65.65 0 0 0-.038-.077l-.02-.031a.598.598 0 0 0-.084-.106l-.027-.027a.767.767 0 0 0-.038-.032l-.03-.023-.011-.008-7.14-4.76a.671.671 0 0 0-.744 0l-7.14 4.76-.01.008-.031.023a.608.608 0 0 0-.038.032l-.027.027a.582.582 0 0 0-.104.137.625.625 0 0 0-.023.044l-.015.033-.017.05-.01.032c-.005.018-.009.037-.012.056l-.005.029a.646.646 0 0 0-.007.088v4.76c0 .029.003.058.007.087 0 .01.003.02.005.029.003.019.007.038.012.056l.01.033c.005.016.01.032.017.049l.015.032a.795.795 0 0 0 .07.117.444.444 0 0 0 .057.065l.027.026a.574.574 0 0 0 .068.055l.011.008 7.14 4.76a.671.671 0 0 0 .744 0l7.14-4.76.01-.008a.748.748 0 0 0 .07-.055l.026-.026a.643.643 0 0 0 .033-.036l.023-.03a.598.598 0 0 0 .029-.04l.019-.03a.604.604 0 0 0 .023-.046l.015-.032.017-.05c.003-.01.008-.02.01-.032a.661.661 0 0 0 .012-.056l.006-.029a.695.695 0 0 0 .006-.088v-4.76a.682.682 0 0 0-.006-.087z"/></g></svg>
